X:2425
L:1/8
M:2/2
K:G
 G2 Gg dBBg | dBBg d2 (dB) | G2 Gg dBBg | eAAB c2 (BA) :| G2 Gg ecdB | G2 (GB) d/d/d (dB) | 
 G2 Gg ecdB | eAAB c2 (BA) :: GdBg dgBa | gdBd gbaf | gdBg dgBg | eAAB c2 Ac :: BGBd ecdc | 
 BGBc dedc | BGBd ecdB | eAAB c2 Ac :|

